src/assets/icons/icon-telephone-white.svg

<?xml version="1.0" encoding="UTF-8"?>
<svg width="16px" height="16px" viewBox="0 0 16 16" version="1.1" xmlns="http://www.w3.org/2000/svg" xmlns:xlink="http://www.w3.org/1999/xlink">
    <!-- Generator: Sketch 52.5 (67469) - http://www.bohemiancoding.com/sketch -->
    <title>path-1</title>
    <desc>Created with Sketch.</desc>
    <defs>
        <path d="M16,12.6363636 C16,12.8409101 15.9621216,13.1079529 15.8863636,13.4375 C15.8106057,13.7670471 15.731061,14.0265142 15.6477273,14.2159091 C15.4886356,14.5946989 15.026519,14.99621 14.2613636,15.4204545 C13.5492389,15.8068201 12.8447005,16 12.1477273,16 C11.9431808,16 11.7424252,15.9867426 11.5454545,15.9602273 C11.3484839,15.933712 11.130683,15.886364 10.8920455,15.8181818 C10.6534079,15.7499997 10.4753794,15.695076 10.3579545,15.6534091 C10.2405297,15.6117422 10.0303045,15.5340915 9.72727273,15.4204545 C9.42424091,15.3068176 9.2386367,15.2386365 9.17045455,15.2159091 C8.42802659,14.9507563 7.76515443,14.6363655 7.18181818,14.2727273 C6.21969216,13.6742394 5.21970216,12.8560658 4.18181818,11.8181818 C3.1439342,10.7802978 2.32576057,9.78030784 1.72727273,8.81818182 C1.36363455,8.23484557 1.04924375,7.57197341 0.784090909,6.82954545 C0.761363523,6.7613633 0.693182386,6.57575909 0.579545455,6.27272727 C0.465908523,5.96969545 0.388257784,5.75947028 0.346590909,5.64204545 C0.304924034,5.52462063 0.250000341,5.3465921 0.181818182,5.10795455 C0.113636023,4.86931699 0.0662880114,4.65151614 0.0397727273,4.45454545 C0.0132574432,4.25757477 0,4.0568192 0,3.85227273 C0,3.15529955 0.193179886,2.45076114 0.579545455,1.73863636 C1.00379,0.973481023 1.40530114,0.511364432 1.78409091,0.352272727 C1.9734858,0.268938977 2.2329529,0.189394318 2.5625,0.113636364 C2.8920471,0.0378784091 3.15908989,0 3.36363636,0 C3.4696975,0 3.54924216,0.0113635227 3.60227273,0.0340909091 C3.73863705,0.0795456818 3.93939261,0.367421591 4.20454545,0.897727273 C4.2878792,1.04166739 4.40151443,1.2462108 4.54545455,1.51136364 C4.68939466,1.77651648 4.82196909,2.01704438 4.94318182,2.23295455 C5.06439455,2.44886472 5.18181761,2.6515142 5.29545455,2.84090909 C5.31818193,2.87121227 5.38446915,2.9659083 5.49431818,3.125 C5.60416722,3.2840917 5.6856058,3.41856006 5.73863636,3.52840909 C5.79166693,3.63825813 5.81818182,3.74621159 5.81818182,3.85227273 C5.81818182,4.00378864 5.71022835,4.19318068 5.49431818,4.42045455 C5.27840801,4.64772841 5.04356187,4.85605966 4.78977273,5.04545455 C4.53598358,5.23484943 4.30113744,5.435605 4.08522727,5.64772727 C3.8693171,5.85984955 3.76136364,6.03409023 3.76136364,6.17045455 C3.76136364,6.2386367 3.78030284,6.32386312 3.81818182,6.42613636 C3.8560608,6.5284096 3.88825744,6.60606034 3.91477273,6.65909091 C3.94128801,6.71212148 3.99431778,6.80302966 4.07386364,6.93181818 C4.15340949,7.0606067 4.19696966,7.13257568 4.20454545,7.14772727 C4.78030591,8.18561125 5.43939023,9.07575386 6.18181818,9.81818182 C6.92424614,10.5606098 7.81438875,11.2196941 8.85227273,11.7954545 C8.86742432,11.8030303 8.9393933,11.8465905 9.06818182,11.9261364 C9.19697034,12.0056822 9.28787852,12.058712 9.34090909,12.0852273 C9.39393966,12.1117426 9.4715904,12.1439392 9.57386364,12.1818182 C9.67613688,12.2196972 9.7613633,12.2386364 9.82954545,12.2386364 C9.96590977,12.2386364 10.1401505,12.1306829 10.3522727,11.9147727 C10.564395,11.6988626 10.7651506,11.4640164 10.9545455,11.2102273 C11.1439403,10.9564381 11.3522716,10.721592 11.5795455,10.5056818 C11.8068193,10.2897716 11.9962114,10.1818182 12.1477273,10.1818182 C12.2537884,10.1818182 12.3617419,10.2083331 12.4715909,10.2613636 C12.5814399,10.3143942 12.7159083,10.3958328 12.875,10.5056818 C13.0340917,10.6155309 13.1287877,10.6818181 13.1590909,10.7045455 C13.3484858,10.8181824 13.5511353,10.9356055 13.7670455,11.0568182 C13.9829556,11.1780309 14.2234835,11.3106053 14.4886364,11.4545455 C14.7537892,11.5984856 14.9583326,11.7121208 15.1022727,11.7954545 C15.6325784,12.0606074 15.9204543,12.261363 15.9659091,12.3977273 C15.9886365,12.4507578 16,12.5303025 16,12.6363636 Z" id="path-1"></path>
    </defs>
    <g id="Page-1" stroke="none" stroke-width="1" fill="none" fill-rule="evenodd">
        <g id="icon-telephone-white">
            <mask id="mask-2" fill="white">
                <use xlink:href="#path-1"></use>
            </mask>
            <use id="path-1" fill="#FFFFFF" xlink:href="#path-1"></use>
        </g>
    </g>
</svg>

<svg xmlns="http://www.w3.org/2000/svg" viewBox="0 0 16 16">
<path fill="#ffff" d="M16,12.64a4.15,4.15,0,0,1-.11.8,5.32,5.32,0,0,1-.24.78,3.06,3.06,0,0,1-1.39,1.2,4.37,4.37,0,0,1-2.11.58,3.86,3.86,0,0,1-.6,0,4.91,4.91,0,0,1-.66-.14c-.24-.07-.41-.12-.53-.17l-.63-.23-.56-.2a10.49,10.49,0,0,1-2-1,17.21,17.21,0,0,1-3-2.45,17.21,17.21,0,0,1-2.45-3,10.49,10.49,0,0,1-.95-2c0-.07-.09-.25-.2-.56S.39,5.76.35,5.64s-.1-.29-.17-.53A4.91,4.91,0,0,1,0,4.45a3.86,3.86,0,0,1,0-.6A4.37,4.37,0,0,1,.58,1.74,3.06,3.06,0,0,1,1.78.35,5.32,5.32,0,0,1,2.56.11,4.15,4.15,0,0,1,3.36,0,.7.7,0,0,1,3.6,0q.21.08.6.87c.09.14.2.35.35.61s.27.51.39.72.24.42.36.61c0,0,.08.13.19.28a3,3,0,0,1,.25.41.79.79,0,0,1,.08.32,1,1,0,0,1-.33.57,5.24,5.24,0,0,1-.7.63,5.81,5.81,0,0,0-.7.6c-.22.21-.33.38-.33.52a.78.78,0,0,0,.06.26l.09.23.16.27a1.42,1.42,0,0,1,.13.22,12,12,0,0,0,2,2.67,12,12,0,0,0,2.67,2,1.42,1.42,0,0,1,.22.13l.27.16.23.09a.78.78,0,0,0,.26.06c.14,0,.31-.11.52-.33a5.81,5.81,0,0,0,.6-.7,5.24,5.24,0,0,1,.63-.7,1,1,0,0,1,.57-.33.79.79,0,0,1,.32.08,3,3,0,0,1,.41.25l.28.19.61.36.72.39.61.35q.8.39.87.6A.7.7,0,0,1,16,12.64Z"/>
</svg>
